src/pos-icons/email-alert.svg

<svg height="24" viewBox="0 0 24 24" width="24" xmlns="http://www.w3.org/2000/svg"><path d="m16 9v-2l-6 4-6-4v2l6 4zm0-4a2 2 0 0 1 2 2v9a2 2 0 0 1 -2 2h-12c-1.11 0-2-.9-2-2v-9a2 2 0 0 1 2-2zm4 7v-5h2v5zm0 4v-2h2v2z"/></svg>

<?xml version="1.0" encoding="UTF-8"?><!DOCTYPE svg PUBLIC "-//W3C//DTD SVG 1.1//EN" "http://www.w3.org/Graphics/SVG/1.1/DTD/svg11.dtd"><svg xmlns="http://www.w3.org/2000/svg" xmlns:xlink="http://www.w3.org/1999/xlink" version="1.1" id="mdi-email-alert" width="24" height="24" viewBox="0 0 24 24"><path d="M16,9V7L10,11L4,7V9L10,13L16,9M16,5A2,2 0 0,1 18,7V16A2,2 0 0,1 16,18H4C2.89,18 2,17.1 2,16V7A2,2 0 0,1 4,5H16M20,12V7H22V12H20M20,16V14H22V16H20Z" /></svg>
